64x64/apps/steam_icon_392160.svg

<svg height="64" width="64" xmlns="http://www.w3.org/2000/svg"><path d="m13 12h17l5 8 7-8h18l-18 21 12 21h-19l-5-8-6 8h-20l19-22z" opacity=".2"/><path d="m13 11h17l5 8 7-8h18l-18 21 12 21h-19l-5-8-6 8h-20l19-22z" fill="#ccab3c"/><path d="m13 11 .5 1h16.5l5 8 7-8h17.143l.857-1h-18l-7 8-5-8zm9.684 20.367-18.684 21.633h.863l18.137-21zm19.66 1.233-.344.4 11.428 20h.572z" fill="#f4f4f7" opacity=".1"/><circle cx="47" cy="48" opacity=".2" r="15"/><circle cx="47" cy="47" fill="#498391" r="15"/><path d="m43 40v8h5v6h3v-14h-3v5h-2v-5z" fill="#f4f4f7"/></svg>

<svg width="64" height="64" xmlns="http://www.w3.org/2000/svg"><path d="M13 12h17l5 8 7-8h18L42 33l12 21H35l-5-8-6 8H4l19-22z" style="opacity:.2"/><path d="M13 11h17l5 8 7-8h18L42 32l12 21H35l-5-8-6 8H4l19-22z" style="fill:#ccab3c"/><path d="m13 11 .5 1H30l5 8 7-8h17.143L60 11H42l-7 8-5-8H13zm9.684 20.367L4 53h.863L23 32l-.316-.633zm19.66 1.233L42 33l11.428 20H54L42.344 32.6z" style="fill:#f4f4f7;opacity:.1"/><circle cx="47" cy="48" r="15" style="opacity:.2"/><circle cx="47" cy="47" r="15" style="fill:#498391"/><path d="M43 40v8h5v6h3V40h-3v5h-2v-5h-3z" style="fill:#f4f4f7"/></svg>
